img/pay.svg

<svg width="40" height="32" viewBox="0 0 40 32" fill="none" xmlns="http://www.w3.org/2000/svg">
<path fill-rule="evenodd" clip-rule="evenodd" d="M31.5957 13.3371C31.8759 13.195 32.1856 13.121 32.4998 13.121C32.814 13.121 33.1237 13.195 33.4039 13.3371L38.7191 16.0295C39.0046 16.1728 39.2507 16.384 39.4357 16.6444C39.6207 16.9049 39.739 17.2067 39.7803 17.5235C39.9303 18.6987 40.2258 21.7467 39.7023 24.7249C39.4023 26.4349 38.0779 27.9431 36.8449 29.0449C35.5706 30.1841 34.1922 31.0624 33.4842 31.4861C33.1861 31.6652 32.8447 31.7593 32.497 31.7581C32.1492 31.757 31.8085 31.6605 31.5117 31.4793C30.8097 31.0534 29.4492 30.1721 28.1825 29.0351C26.9547 27.9326 25.6385 26.4342 25.3025 24.7482C24.7663 22.0625 25.0775 18.7632 25.223 17.5423C25.2618 17.2209 25.3796 16.9142 25.5658 16.6494C25.752 16.3847 26.0009 16.1702 26.2902 16.025L31.5957 13.3371ZM27.206 17.8033C27.0612 19.031 26.798 22.0257 27.263 24.3567C27.4655 25.3669 28.3452 26.4934 29.519 27.5471C30.6274 28.5431 31.8402 29.3366 32.5039 29.7424C33.1744 29.3389 34.3991 28.5484 35.5114 27.5546C36.6911 26.5002 37.5566 25.3797 37.7321 24.3792C38.1994 21.7242 37.9429 18.9395 37.7996 17.807L32.5002 15.1213L27.206 17.8033Z" fill="#2B3151"/>
<path fill-rule="evenodd" clip-rule="evenodd" d="M36.2404 19.3596C36.6304 19.7496 36.6304 20.3833 36.2404 20.7733L31.9069 25.1067C31.5169 25.4967 30.8832 25.4967 30.4932 25.1067L28.325 22.94C28.2321 22.8471 28.1585 22.7369 28.1083 22.6156C28.0581 22.4942 28.0322 22.3642 28.0323 22.2329C28.0323 22.1016 28.0582 21.9716 28.1085 21.8503C28.1588 21.7289 28.2325 21.6187 28.3253 21.5259C28.4182 21.4331 28.5285 21.3595 28.6498 21.3092C28.7711 21.259 28.9012 21.2332 29.0325 21.2332C29.1638 21.2333 29.2938 21.2592 29.4151 21.3094C29.5364 21.3597 29.6466 21.4334 29.7394 21.5263L31.1989 22.9858L34.8251 19.3596C35.2159 18.9696 35.8489 18.9696 36.2396 19.3596H36.2404ZM7.00045 5.84622C6.69443 5.84622 6.40094 5.96778 6.18455 6.18418C5.96816 6.40057 5.84659 6.69406 5.84659 7.00008C5.84659 7.3061 5.96816 7.59959 6.18455 7.81598C6.40094 8.03237 6.69443 8.15394 7.00045 8.15394C7.30648 8.15394 7.59997 8.03237 7.81636 7.81598C8.03275 7.59959 8.15431 7.3061 8.15431 7.00008C8.15431 6.69406 8.03275 6.40057 7.81636 6.18418C7.59997 5.96778 7.30648 5.84622 7.00045 5.84622ZM4.00049 7.00045C4.00049 6.20481 4.31655 5.44176 4.87916 4.87916C5.44176 4.31656 6.20481 4.00049 7.00045 4.00049C7.79609 4.00049 8.55915 4.31656 9.12175 4.87916C9.68435 5.44176 10.0004 6.20481 10.0004 7.00045C10.0004 7.79609 9.68435 8.55915 9.12175 9.12175C8.55915 9.68435 7.79609 10.0004 7.00045 10.0004C6.20481 10.0004 5.44176 9.68435 4.87916 9.12175C4.31655 8.55915 4.00049 7.79609 4.00049 7.00045Z" fill="#2B3151"/>
<path fill-rule="evenodd" clip-rule="evenodd" d="M11.2003 5.84622C10.8943 5.84622 10.6008 5.96778 10.3844 6.18418C10.168 6.40057 10.0464 6.69406 10.0464 7.00008C10.0464 7.3061 10.168 7.59959 10.3844 7.81598C10.6008 8.03237 10.8943 8.15394 11.2003 8.15394C11.5063 8.15394 11.7998 8.03237 12.0162 7.81598C12.2326 7.59959 12.3541 7.3061 12.3541 7.00008C12.3541 6.69406 12.2326 6.40057 12.0162 6.18418C11.7998 5.96778 11.5063 5.84622 11.2003 5.84622ZM8.20032 7.00045C8.20032 6.20481 8.51638 5.44176 9.07899 4.87916C9.64159 4.31656 10.4046 4.00049 11.2003 4.00049C11.9959 4.00049 12.759 4.31656 13.3216 4.87916C13.8842 5.44176 14.2002 6.20481 14.2002 7.00045C14.2002 7.79609 13.8842 8.55915 13.3216 9.12175C12.759 9.68435 11.9959 10.0004 11.2003 10.0004C10.4046 10.0004 9.64159 9.68435 9.07899 9.12175C8.51638 8.55915 8.20032 7.79609 8.20032 7.00045Z" fill="#2B3151"/>
<path fill-rule="evenodd" clip-rule="evenodd" d="M0 5.00019C0 3.67406 0.526804 2.40224 1.46452 1.46452C2.40224 0.526805 3.67406 0 5.00019 0H31.0001C32.3261 0.000198891 33.5978 0.527091 34.5353 1.46479C35.4729 2.40248 35.9996 3.67419 35.9996 5.00019V14.9998H34.0001V5.00019C34.0001 4.20455 33.684 3.4415 33.1214 2.8789C32.5588 2.31629 31.7958 2.00023 31.0001 2.00023H5.00019C4.20455 2.00023 3.4415 2.31629 2.8789 2.8789C2.31629 3.4415 2.00023 4.20455 2.00023 5.00019V17.0001H25.9999V19.0003H2.00023V20.9998C2.00023 21.7954 2.31629 22.5584 2.8789 23.1211C3.4415 23.6837 4.20455 23.9997 5.00019 23.9997H25.9999V25.9999H5.00019C3.67406 25.9999 2.40224 25.4731 1.46452 24.5354C0.526804 23.5977 0 22.3259 0 20.9998V5.00019Z" fill="#2B3151"/>
</svg>

<svg width="40" height="32" fill="none" xmlns="http://www.w3.org/2000/svg"><path fill-rule="evenodd" clip-rule="evenodd" d="M31.596 13.337a1.999 1.999 0 011.808 0l5.315 2.692a1.955 1.955 0 011.061 1.494c.15 1.176.446 4.224-.078 7.202-.3 1.71-1.624 3.218-2.857 4.32-1.274 1.14-2.653 2.017-3.36 2.441a1.904 1.904 0 01-1.973-.007c-.702-.426-2.063-1.307-3.33-2.444-1.227-1.102-2.543-2.6-2.88-4.287-.536-2.686-.224-5.985-.079-7.206a1.96 1.96 0 011.067-1.517l5.306-2.688zm-4.39 4.466c-.145 1.228-.408 4.223.057 6.554.202 1.01 1.082 2.136 2.256 3.19 1.108.996 2.321 1.79 2.985 2.195.67-.403 1.895-1.194 3.007-2.187 1.18-1.055 2.046-2.175 2.221-3.176.467-2.655.21-5.44.068-6.572l-5.3-2.686-5.294 2.682z" fill="#2B3151"/><path fill-rule="evenodd" clip-rule="evenodd" d="M36.24 19.36a1 1 0 010 1.413l-4.333 4.334a1 1 0 01-1.414 0l-2.168-2.167a.999.999 0 111.414-1.414l1.46 1.46 3.626-3.626c.39-.39 1.024-.39 1.415 0zM7 5.846a1.154 1.154 0 100 2.308 1.154 1.154 0 000-2.308zM4 7a3 3 0 116 0 3 3 0 01-6 0z" fill="#2B3151"/><path fill-rule="evenodd" clip-rule="evenodd" d="M11.2 5.846a1.154 1.154 0 100 2.308 1.154 1.154 0 000-2.308zM8.2 7a3 3 0 116 0 3 3 0 01-6 0z" fill="#2B3151"/><path fill-rule="evenodd" clip-rule="evenodd" d="M0 5a5 5 0 015-5h26a5 5 0 015 5v10h-2V5a3 3 0 00-3-3H5a3 3 0 00-3 3v12h24v2H2v2a3 3 0 003 3h21v2H5a5 5 0 01-5-5V5z" fill="#2B3151"/></svg>
